X:1
T:Coronae, 87.87.47
T:Coronae, 87.87.47
T:William Henry Monk, 1871
T:Public Domain Courtesy of the Cyber Hymnal™
C:William Henry Monk, 1871
Z:Public Domain
Z:Courtesy of the Cyber Hymnal™
%%score ( 1 2 ) ( 3 4 )
L:1/8
Q:1/4=110
M:4/4
K:F
V:1 treble 
V:2 treble 
V:3 bass 
V:4 bass 
V:1
 [FA]2 [FA]2 [Ec]3 [Cc] | [CF]2 [DF]2 [EG]2 [CA]2 | D2 [CE]2 [CF]2 [CG]2 | [CA]2 [Cc]2 [CG]4 | %4
 [CA]2 [FA]2 [Gc]3 [Gc] | F2 [DF]2 [EA]2 [CA]2 | D2 [CE]2 F2 [FB]2 | [FG]2 [Ec]2 [FA]4 | %8
 [FA]4 [Fc]4 | [Fd]4 [Fc]4 | [FA]2 [Gc]2 F2 [FB]2 | [FA]6 [EG]2 | F8 |] %13
V:2
 x8 | x8 | x8 | x8 | x8 | F2 x6 | D2 F2 x4 | x8 | x8 | x8 | x8 | x8 | F8 |] %13
V:3
 [F,C]2 [D,F,]2 [C,G,]3 [E,G,] | [F,A,]2 [D,A,]2 [A,,C]2 [C,E,]2 | %2
 [B,,F,]2 [B,,G,]2 [A,,F,]2 [G,,E,]2 | [F,,F,]2 [A,,F,]2 [C,E,]4 | F,2 [F,C]2 [E,C]3 [E,C] | %5
 [D,A,]2 [D,A,]2 [C,A,]2 [C,E,]2 | [B,,F,]2 [B,,G,]2 [A,,C]2 [G,,D]2 | [C,C]2 [C,C]2 [F,C]4 | %8
 [F,C]4 [F,A,]4 | [B,,B,]4 [F,A,]4 | [F,C]2 [E,C]2 [D,C]2 [G,,B,]2 | C6 [C,B,]2 | [F,,F,A,]8 |] %13
V:4
 x8 | x8 | x8 | x8 | F,2 x6 | x8 | x8 | x8 | x8 | x8 | x8 | (A,,3 B,, C,2) x2 | x8 |] %13

